X: 5606
T: Butlers Of Glen Avenue, The
R: jig
M: 6/8
K: Gmajor
|:DEG EDB|DEG ~B3|DEG B2 e|dBe dBA|
DEG EDB|DEG ~B3|dB/c/d gfe|1 dBA ~G3:|2 dBa ~g3||
|:gab age|deg ~B3|gab gab|dB/c/d e{f}e d|
gab age|deg ~B3|dB/c/d gfe|1 dea ~g3:|2 dBA ~G3||

